X:152
T: IHR STAEDTER SUCHT IHR FREUDE
N: B0182
O: Europa, Mitteleuropa, Deutschland
R: Natur - Lied, Land - Leben
M: 6/8
L: 1/8
K: Bb
F | B2Bc2c | d3c2
d | e2dc2B | c3z2
F | B2Bc2c | d3c2
f | f2dedc | B3z2
F | c2cd2d | c3d2
e | f2dfed | c3z2
F | B2Bc2c | d3c2
f | f2dedc | B3z2

@@@ Tune index: 1955
